StratisCore.UI/src/assets/images/stratis/logo.svg

<?xml version="1.0" encoding="UTF-8" standalone="no"?>
<svg width="375px" height="325px" viewBox="0 0 375 325" version="1.1" xmlns="http://www.w3.org/2000/svg" xmlns:xlink="http://www.w3.org/1999/xlink">
    <!-- Generator: Sketch 47.1 (45422) - http://www.bohemiancoding.com/sketch -->
    <title>logo</title>
    <desc>Created with Sketch.</desc>
    <defs>
        <polygon id="path-1" points="374.176 0.000379797827 374.176 324.743 0.0003 324.743 0.0003 0.000379797827"></polygon>
        <linearGradient x1="50%" y1="34.2829973%" x2="0%" y2="34.2829973%" id="linearGradient-3">
            <stop stop-color="#1794C8" offset="0%"></stop>
            <stop stop-color="#1FB8C1" offset="100%"></stop>
        </linearGradient>
    </defs>
    <g id="Page-1" stroke="none" stroke-width="1" fill="none" fill-rule="evenodd">
        <g id="logo">
            <mask id="mask-2" fill="white">
                <use xlink:href="#path-1"></use>
            </mask>
            <g id="Clip-2"></g>
            <path d="M18.2113,110.7214 L186.9053,205.1204 C187.0173,205.1904 187.1593,205.1904 187.2713,205.1204 L355.9293,110.7224 C356.1423,110.5884 356.1423,110.2784 355.9303,110.1434 L187.2403,15.7294 C187.1273,15.6574 186.9823,15.6584 186.8703,15.7314 L18.2073,110.1444 C17.9973,110.2804 18.0003,110.5884 18.2113,110.7214 M180.6393,322.7954 L1.9083,222.7034 C1.7493,222.6004 1.7033,222.3884 1.8053,222.2294 L9.5353,210.2384 C9.6373,210.0794 9.8493,210.0334 10.0083,210.1364 L186.8703,309.1674 C186.9823,309.2394 187.1273,309.2394 187.2403,309.1674 L352.9963,216.3834 C357.0663,214.1004 359.1103,209.4634 359.1103,204.8114 L359.1103,179.6204 C359.1103,179.3494 358.8123,179.1854 358.5833,179.3314 L193.4363,271.7974 C188.8853,274.3454 185.2863,274.3794 180.6833,271.8044 L13.6663,178.3454 C5.0663,172.8854 0.0423,163.5424 0.0423,153.3554 L0.0003,109.3394 C0.0003,102.9684 3.2983,100.9434 8.1233,98.2394 L180.4253,1.7664 C184.6533,-0.5936 189.4953,-0.5936 193.7453,1.7984 L368.6803,99.7374 C372.2843,101.7554 374.1763,106.0184 374.1763,110.3074 C374.1763,114.3574 371.8843,118.8914 368.6803,120.6854 L193.3753,218.8364 C188.8913,221.3424 185.2193,221.3424 180.7283,218.8324 L15.4143,126.2774 C15.1863,126.1334 14.8893,126.2974 14.8893,126.5674 L14.9323,153.3554 C14.9323,158.3804 17.4643,162.9894 21.7063,165.6824 L186.8713,258.1824 C186.9833,258.2544 187.1273,258.2544 187.2393,258.1824 L355.5863,163.9014 C359.9483,161.1224 366.1773,160.9914 370.2163,164.5804 C372.7953,166.8734 374.1763,170.2324 374.1763,173.6824 L374.1733,204.6964 C374.1453,214.2864 368.6803,224.6974 360.9823,229.0084 L193.3943,322.8334 C188.8333,325.3864 185.2933,325.3864 180.6393,322.7954" id="Fill-1" fill="url(#linearGradient-3)" mask="url(#mask-2)"></path>
        </g>
    </g>
</svg>

<?xml version="1.0" encoding="utf-8"?>
<!-- Generator: Adobe Illustrator 24.3.0, SVG Export Plug-In . SVG Version: 6.00 Build 0)  -->
<svg version="1.1" id="Layer_1" xmlns="http://www.w3.org/2000/svg" xmlns:xlink="http://www.w3.org/1999/xlink" x="0px" y="0px"
	 viewBox="0 0 375 325" style="enable-background:new 0 0 375 325;" xml:space="preserve">
<style type="text/css">
	.st0{fill-rule:evenodd;clip-rule:evenodd;fill:url(#Fill-1_1_);}
</style>
<desc>Created with Sketch.</desc>
<g id="Page-1">
	<g id="logo">
		<g id="Clip-2">
		</g>
		
			<linearGradient id="Fill-1_1_" gradientUnits="userSpaceOnUse" x1="361.6355" y1="13.4847" x2="16.4288" y2="309.8508" gradientTransform="matrix(1 0 0 -1 0 326)">
			<stop  offset="0" style="stop-color:#0A41A0"/>
			<stop  offset="1" style="stop-color:#1E8CC8"/>
		</linearGradient>
		<path id="Fill-1" class="st0" d="M18.2,110.7l168.7,94.4c0.1,0.1,0.3,0.1,0.4,0L356,110.7c0.2-0.1,0.2-0.4,0-0.6L187.2,15.7
			c-0.1-0.1-0.3-0.1-0.4,0L18.2,110.1C18,110.3,18,110.6,18.2,110.7 M180.6,322.8L1.9,222.7c-0.2-0.1-0.2-0.3-0.1-0.5l7.7-12
			c0.1-0.2,0.3-0.2,0.5-0.1l176.9,99c0.1,0.1,0.3,0.1,0.4,0L353,216.4c4.1-2.3,6.1-6.9,6.1-11.6v-25.2c0-0.3-0.3-0.4-0.5-0.3
			l-165.1,92.5c-4.6,2.5-8.1,2.6-12.8,0l-167-93.5C5.1,172.9,0,163.5,0,153.4v-44c0-6.4,3.3-8.4,8.1-11.1L180.4,1.8
			c4.2-2.4,9.1-2.4,13.3,0l174.9,97.9c3.6,2,5.5,6.3,5.5,10.6c0,4-2.3,8.6-5.5,10.4l-175.3,98.2c-4.5,2.5-8.2,2.5-12.6,0L15.4,126.3
			c-0.2-0.1-0.5,0-0.5,0.3v26.8c0,5,2.5,9.6,6.8,12.3l165.2,92.5c0.1,0.1,0.3,0.1,0.4,0l168.3-94.3c4.4-2.8,10.6-2.9,14.6,0.7
			c2.6,2.3,4,5.7,4,9.1v31c0,9.6-5.5,20-13.2,24.3l-167.6,93.8C188.8,325.4,185.3,325.4,180.6,322.8"/>
	</g>
</g>
</svg>
